X:038
L:1/16
M:2/4
K:G
(BA) | GFEF GABd | egfa g2(bg) | dcBA G2(Bd) | cBAG EcBA |
(dc) | Bdef g2(fg) | agfg e2(ge) | dcBA G2(Bd) | cBAG EcBA |

